;FLAVOR:Marlin
;TIME:2692
;Filament used: 1.29551m
;Layer height: 0.2
;MINX:85.106
;MINY:89.418
;MINZ:0.2
;MAXX:149.566
;MAXY:149.904
;MAXZ:16.4
;Generated with Cura_SteamEngine 4.13.1
M140 S60
M105
M190 S60
M104 S220
M105
M109 S220
M82 ;absolute extrusion mode
; Ender 3 Custom Start G-code
G92 E0 ; Reset Extruder
G28 ; Home all axes
G1 Z2.0 F3000 ; Move Z Axis up little to prevent scratching of Heat Bed
G1 X0.1 Y20 Z0.3 F5000.0 ; Move to start position
G1 X0.1 Y200.0 Z0.3 F1500.0 E15 ; Draw the first line
G1 X0.4 Y200.0 Z0.3 F5000.0 ; Move to side a little
G1 X0.4 Y20 Z0.3 F1500.0 E30 ; Draw the second line
G92 E0 ; Reset Extruder
G1 Z2.0 F3000 ; Move Z Axis up little to prevent scratching of Heat Bed
G1 X5 Y20 Z0.3 F5000.0 ; Move over to prevent blob squish
G92 E0
G92 E0
G1 F1500 E-6.5
;LAYER_COUNT:83
;LAYER:0
M107
G0 F6000 X88.616 Y92.343 Z0.2
;TYPE:SKIRT
G1 F1500 E0
G1 F1200 X89.211 Y91.823 E0.02628
G1 X89.577 Y91.552 E0.04143
G1 X90.042 Y91.228 E0.06028
G1 X91.024 Y90.646 E0.09825
G1 X91.279 Y90.519 E0.10772
G1 X91.963 Y90.218 E0.13258
G1 X92.362 Y90.065 E0.14679
G1 X93.11 Y89.821 E0.17296
G1 X93.386 Y89.746 E0.18247
G1 X94.459 Y89.534 E0.21885
G1 X94.881 Y89.481 E0.233
G1 X95.36 Y89.436 E0.249
G1 X95.644 Y89.418 E0.25846
G1 X96.735 Y89.425 E0.29475
G1 X96.878 Y89.436 E0.29952
G1 X97.216 Y89.469 E0.31081
G1 X97.638 Y89.52 E0.32495
G1 X98.504 Y89.675 E0.35421
G1 X98.782 Y89.741 E0.36372
G1 X99.725 Y90.029 E0.39651
G1 X100.124 Y90.179 E0.41069
G1 X100.658 Y90.403 E0.42995
G1 X100.917 Y90.523 E0.43944
G1 X101.85 Y91.035 E0.47484
G1 X101.97 Y91.112 E0.47958
G1 X102.203 Y91.267 E0.48889
G1 X102.552 Y91.509 E0.50302
G1 X103.272 Y92.074 E0.53346
G1 X103.487 Y92.264 E0.543
G1 X104.166 Y92.943 E0.57494
G1 X104.448 Y93.262 E0.5891
G1 X104.867 Y93.779 E0.61123
G1 X105.037 Y94.008 E0.62072
G1 X105.476 Y94.69 E0.64769
G1 X105.75 Y94.625 E0.65706
G1 X106.168 Y94.559 E0.67114
G1 X106.283 Y94.544 E0.67499
G1 X107.07 Y94.481 E0.70125
G1 X107.919 Y94.503 E0.7295
G1 X114.399 Y95.026 E0.94573
G1 X115.182 Y95.13 E0.972
G1 X115.708 Y95.245 E0.98991
G1 X115.911 Y95.297 E0.99688
G1 X116.665 Y95.531 E1.02313
G1 X117.391 Y95.841 E1.04939
G1 X117.835 Y96.086 E1.06626
G1 X118.146 Y95.981 E1.07717
G1 X118.412 Y95.902 E1.0864
G1 X119.18 Y95.716 E1.11269
G1 X119.624 Y95.645 E1.12764
G1 X119.739 Y95.63 E1.1315
G1 X120.526 Y95.567 E1.15776
G1 X121.375 Y95.589 E1.186
G1 X127.855 Y96.112 E1.40223
G1 X128.638 Y96.216 E1.4285
G1 X129.198 Y96.34 E1.44758
G1 X129.401 Y96.393 E1.45456
G1 X130.154 Y96.631 E1.48082
G1 X130.246 Y96.671 E1.48416
G1 X130.485 Y96.402 E1.49613
G1 X130.914 Y95.956 E1.51671
G1 X131.118 Y95.76 E1.52612
G1 X131.967 Y95.053 E1.56287
G1 X132.173 Y94.906 E1.57128
G1 X132.527 Y94.659 E1.58564
G1 X133.524 Y94.068 E1.62419
G1 X133.776 Y93.943 E1.63355
G1 X134.461 Y93.643 E1.65842
G1 X134.862 Y93.49 E1.67269
G1 X135.591 Y93.253 E1.69819
G1 X135.866 Y93.178 E1.70767
G1 X136.969 Y92.961 E1.74506
G1 X137.393 Y92.909 E1.75927
G1 X137.843 Y92.867 E1.7743
G1 X138.124 Y92.849 E1.78366
G1 X139.225 Y92.856 E1.82028
G1 X139.367 Y92.867 E1.82502
G1 X139.696 Y92.9 E1.83602
G1 X140.12 Y92.951 E1.85022
G1 X140.983 Y93.104 E1.87937
G1 X141.258 Y93.169 E1.88877
G1 X142.207 Y93.458 E1.92177
G1 X142.609 Y93.609 E1.93605
G1 X143.133 Y93.828 E1.95494
G1 X143.391 Y93.947 E1.96439
G1 X144.4 Y94.506 E2.00275
G1 X144.683 Y94.695 E2.01407
G1 X145.034 Y94.938 E2.02827
G1 X145.767 Y95.514 E2.05928
G1 X145.978 Y95.701 E2.06866
G1 X146.629 Y96.349 E2.09921
G1 X146.915 Y96.67 E2.11351
G1 X147.347 Y97.201 E2.13627
G1 X147.516 Y97.428 E2.14569
G1 X147.955 Y98.085 E2.17197
G1 X148.156 Y98.44 E2.18554
G1 X148.423 Y98.945 E2.20454
G1 X148.876 Y99.976 E2.24199
G1 X148.971 Y100.243 E2.25142
G1 X149.193 Y100.983 E2.27711
G1 X149.296 Y101.399 E2.29137
G1 X149.446 Y102.167 E2.31739
G1 X149.486 Y102.446 E2.32677
G1 X149.565 Y103.535 E2.36308
G1 X149.566 Y103.965 E2.37739
G1 X149.553 Y104.426 E2.39272
G1 X149.537 Y104.707 E2.40209
G1 X149.386 Y105.857 E2.44066
G1 X149.357 Y105.996 E2.44539
G1 X149.294 Y106.269 E2.4547
G1 X149.191 Y106.687 E2.46902
G1 X148.93 Y107.535 E2.49853
G1 X148.832 Y107.799 E2.5079
G1 X148.43 Y108.704 E2.54084
G1 X148.231 Y109.084 E2.5551
G1 X147.952 Y109.572 E2.5738
G1 X147.804 Y109.811 E2.58315
G1 X147.134 Y110.735 E2.62111
G1 X146.931 Y110.972 E2.63149
G1 X146.647 Y111.294 E2.64577
G1 X145.898 Y112.036 E2.68084
G1 X145.684 Y112.221 E2.69024
G1 X145.018 Y112.736 E2.71825
G1 X144.665 Y112.98 E2.73252
G1 X144.079 Y113.348 E2.75553
G1 X143.834 Y113.487 E2.7649
G1 X142.78 Y113.985 E2.80367
G1 X142.246 Y114.19 E2.8227
G1 X141.114 Y114.529 E2.862
G1 X140.839 Y114.589 E2.87136
G1 X140.137 Y114.709 E2.89505
G1 X139.71 Y114.762 E2.90936
G1 X138.888 Y114.82 E2.93677
G1 X138.833 Y114.821 E2.9386
G1 X138.764 Y115.055 E2.94671
G1 X138.624 Y115.427 E2.95993
G1 X138.58 Y115.535 E2.96381
G1 X138.245 Y116.25 E2.99007
G1 X137.774 Y117.024 E3.02021
G1 X134.082 Y122.37 E3.2363
G1 X133.601 Y122.997 E3.26258
G1 X133.008 Y123.62 E3.29119
G1 X132.924 Y123.699 E3.29503
G1 X132.015 Y124.433 E3.33389
G1 X131.785 Y124.592 E3.34318
G1 X131.451 Y124.799 E3.35625
G1 X131.381 Y125.142 E3.3679
G1 X131.316 Y125.413 E3.37717
G1 X130.955 Y126.537 E3.41643
G1 X130.911 Y126.645 E3.42031
G1 X130.576 Y127.36 E3.44657
G1 X130.106 Y128.134 E3.47669
G1 X126.415 Y133.48 E3.69276
G1 X125.934 Y134.106 E3.71902
G1 X125.34 Y134.73 E3.74767
G1 X125.256 Y134.809 E3.75151
G1 X124.726 Y135.236 E3.77415
G1 X124.76 Y135.332 E3.77753
G1 X124.975 Y136.046 E3.80233
G1 X125.079 Y136.462 E3.8166
G1 X125.236 Y137.27 E3.84397
G1 X125.275 Y137.548 E3.85331
G1 X125.351 Y138.614 E3.88885
G1 X125.352 Y139.044 E3.90316
G1 X125.339 Y139.504 E3.91846
G1 X125.323 Y139.786 E3.92786
G1 X125.172 Y140.937 E3.96647
G1 X125.143 Y141.076 E3.97119
G1 X125.08 Y141.349 E3.98051
G1 X124.977 Y141.767 E3.99483
G1 X124.713 Y142.625 E4.02469
G1 X124.615 Y142.888 E4.03402
G1 X124.22 Y143.775 E4.06631
G1 X124.021 Y144.156 E4.08061
G1 X123.738 Y144.652 E4.0996
G1 X123.59 Y144.891 E4.10895
G1 X122.92 Y145.815 E4.14692
G1 X122.71 Y146.06 E4.15765
G1 X122.427 Y146.38 E4.17186
G1 X121.701 Y147.1 E4.20586
G1 X121.487 Y147.286 E4.2153
G1 X120.805 Y147.815 E4.244
G1 X120.452 Y148.059 E4.25828
G1 X119.887 Y148.415 E4.28049
G1 X119.642 Y148.555 E4.28987
G1 X118.937 Y148.912 E4.31616
G1 X118.563 Y149.067 E4.32962
G1 X118.028 Y149.272 E4.34868
G1 X116.9 Y149.609 E4.38783
G1 X116.625 Y149.669 E4.39719
G1 X115.923 Y149.789 E4.42088
G1 X115.496 Y149.842 E4.43519
G1 X114.646 Y149.9 E4.46353
G1 X114.365 Y149.904 E4.47288
G1 X113.329 Y149.85 E4.50738
G1 X112.902 Y149.799 E4.52168
G1 X112.42 Y149.726 E4.5379
G1 X112.142 Y149.675 E4.5473
G1 X111.016 Y149.38 E4.58601
G1 X110.672 Y149.259 E4.59814
G1 X110.27 Y149.108 E4.61242
G1 X109.382 Y148.71 E4.64479
G1 X109.131 Y148.578 E4.65422
G1 X108.331 Y148.093 E4.68534
G1 X107.979 Y147.85 E4.69956
G1 X107.49 Y147.484 E4.71988
G1 X107.271 Y147.306 E4.72927
G1 X106.485 Y146.571 E4.76506
G1 X106.263 Y146.33 E4.77596
G1 X105.977 Y146.008 E4.79028
G1 X105.332 Y145.174 E4.82535
G1 X105.175 Y144.94 E4.83472
G1 X104.757 Y144.241 E4.86181
G1 X104.556 Y143.861 E4.87611
G1 X104.23 Y143.163 E4.90173
G1 X104.123 Y142.901 E4.91114
G1 X103.777 Y141.844 E4.94813
G1 X103.639 Y141.292 E4.96706
G1 X103.486 Y140.517 E4.99333
G1 X103.436 Y140.089 E5.00766
G1 X103.411 Y139.807 E5.01708
G1 X103.381 Y139.136 E5.03942
G1 X103.38 Y138.708 E5.05366
G1 X103.426 Y137.844 E5.08243
G1 X103.457 Y137.56 E5.09194
G1 X103.635 Y136.549 E5.12608
G1 X103.737 Y136.133 E5.14032
G1 X103.878 Y135.632 E5.15764
G1 X103.963 Y135.364 E5.16699
G1 X104.378 Y134.322 E5.20429
G1 X104.44 Y134.194 E5.20902
G1 X104.554 Y133.968 E5.21744
G1 X104.727 Y133.638 E5.22983
G1 X104.543 Y133.444 E5.23873
G1 X104.23 Y133.055 E5.25533
G1 X104.163 Y132.966 E5.25904
G1 X103.721 Y132.312 E5.28529
G1 X103.355 Y131.633 E5.31095
G1 X102.899 Y130.677 E5.34618
G1 X102.832 Y130.532 E5.35149
G1 X101.042 Y126.76 E5.49036
G1 X100.635 Y125.908 E5.52176
G1 X100.343 Y125.21 E5.54693
G1 X100.25 Y124.954 E5.55598
G1 X100.018 Y124.199 E5.58226
G1 X99.864 Y123.425 E5.6085
G1 X99.805 Y122.906 E5.62588
G1 X99.783 Y122.628 E5.63515
G1 X99.773 Y122.253 E5.64763
G1 X99.503 Y122.015 E5.6596
G1 X99.301 Y121.823 E5.66887
G1 X98.757 Y121.25 E5.69515
G1 X98.477 Y120.905 E5.70993
G1 X98.409 Y120.816 E5.71365
G1 X97.962 Y120.165 E5.73992
G1 X97.56 Y119.424 E5.76796
G1 X94.773 Y113.552 E5.98414
G1 X94.471 Y112.823 E6.01039
G1 X94.305 Y112.298 E6.0287
G1 X94.248 Y112.093 E6.03578
G1 X94.075 Y111.322 E6.06206
G1 X94.061 Y111.202 E6.06608
G1 X93.847 Y111.162 E6.07332
G1 X92.76 Y110.877 E6.11069
G1 X92.625 Y110.831 E6.11544
G1 X92.386 Y110.745 E6.12388
G1 X91.986 Y110.594 E6.1381
G1 X91.133 Y110.212 E6.16919
G1 X90.88 Y110.08 E6.17868
G1 X90.064 Y109.589 E6.21036
G1 X89.714 Y109.348 E6.22449
G1 X89.212 Y108.972 E6.24535
G1 X88.991 Y108.792 E6.25483
G1 X88.215 Y108.066 E6.29018
G1 X87.976 Y107.806 E6.30192
G1 X87.693 Y107.486 E6.31613
G1 X87.063 Y106.671 E6.35039
G1 X86.905 Y106.436 E6.35981
G1 X86.48 Y105.725 E6.38736
G1 X86.281 Y105.348 E6.40154
G1 X85.965 Y104.674 E6.4263
G1 X85.856 Y104.409 E6.43583
G1 X85.501 Y103.327 E6.4737
G1 X85.364 Y102.777 E6.49256
G1 X85.212 Y102.002 E6.51882
G1 X85.165 Y101.601 E6.53225
G1 X85.139 Y101.316 E6.54177
G1 X85.107 Y100.625 E6.56478
G1 X85.106 Y100.2 E6.57891
G1 X85.151 Y99.341 E6.60752
G1 X85.182 Y99.055 E6.61709
G1 X85.365 Y98.026 E6.65185
G1 X85.467 Y97.613 E6.666
G1 X85.604 Y97.124 E6.68289
G1 X85.69 Y96.853 E6.69235
G1 X86.116 Y95.789 E6.73047
G1 X86.275 Y95.471 E6.74229
G1 X86.472 Y95.094 E6.75644
G1 X86.954 Y94.292 E6.78756
G1 X87.116 Y94.056 E6.79708
G1 X87.711 Y93.295 E6.82921
G1 X87.993 Y92.977 E6.84335
G1 X88.409 Y92.543 E6.86334
G1 X88.616 Y92.343 E6.87292
G0 F6000 X88.894 Y92.63
G1 F1200 X89.474 Y92.125 E6.8985
G1 X89.806 Y91.88 E6.91222
G1 X90.271 Y91.556 E6.93107
G1 X91.202 Y91.004 E6.96707
G1 X91.457 Y90.877 E6.97654
G1 X92.107 Y90.592 E7.00015
G1 X92.506 Y90.439 E7.01436
G1 X93.214 Y90.207 E7.03914
G1 X93.49 Y90.132 E7.04866
G1 X94.509 Y89.931 E7.0832
G1 X94.931 Y89.878 E7.09735
G1 X95.385 Y89.835 E7.11251
G1 X95.669 Y89.817 E7.12198
G1 X96.705 Y89.824 E7.15644
G1 X96.848 Y89.835 E7.16121
G1 X97.168 Y89.866 E7.1719
G1 X97.59 Y89.917 E7.18604
G1 X98.411 Y90.064 E7.21378
G1 X98.689 Y90.13 E7.22328
G1 X99.584 Y90.403 E7.2544
G1 X99.983 Y90.553 E7.26858
G1 X100.49 Y90.766 E7.28687
G1 X100.749 Y90.886 E7.29637
G1 X101.634 Y91.372 E7.32995
G1 X101.754 Y91.449 E7.33469
G1 X101.975 Y91.596 E7.34352
G1 X102.324 Y91.838 E7.35764
G1 X103.007 Y92.374 E7.38652
G1 X103.222 Y92.564 E7.39606
G1 X103.866 Y93.208 E7.42636
G1 X104.148 Y93.527 E7.44052
G1 X104.546 Y94.017 E7.46151
G1 X104.716 Y94.246 E7.471
G1 X105.253 Y95.081 E7.50402
G1 X105.291 Y95.151 E7.50667
G1 X106.22 Y94.955 E7.53825
G1 X106.335 Y94.94 E7.5421
G1 X107.102 Y94.88 E7.56769
G1 X107.887 Y94.902 E7.59381
G1 X114.367 Y95.425 E7.81004
G1 X115.13 Y95.527 E7.83564
G1 X115.608 Y95.632 E7.85192
G1 X115.811 Y95.684 E7.85889
G1 X116.545 Y95.914 E7.88447
G1 X117.252 Y96.218 E7.91007
G1 X117.793 Y96.521 E7.93069
G1 X118.26 Y96.364 E7.94708
G1 X118.526 Y96.285 E7.95631
G1 X119.274 Y96.105 E7.9819
G1 X119.676 Y96.041 E7.99544
G1 X119.791 Y96.026 E7.99929
G1 X120.558 Y95.966 E8.02488
G1 X121.343 Y95.988 E8.051
G1 X127.823 Y96.511 E8.26723
G1 X128.586 Y96.613 E8.29283
G1 X129.097 Y96.727 E8.31025
G1 X129.3 Y96.78 E8.31722
G1 X130.033 Y97.013 E8.34281
G1 X130.366 Y97.158 E8.35489
G1 X130.499 Y96.989 E8.36204
G1 X130.784 Y96.668 E8.37632
G1 X131.191 Y96.245 E8.39584
G1 X131.395 Y96.049 E8.40525
G1 X132.201 Y95.378 E8.44013
G1 X132.402 Y95.234 E8.44835
G1 X132.756 Y94.987 E8.46271
G1 X133.702 Y94.427 E8.49927
G1 X133.954 Y94.302 E8.50863
G1 X134.604 Y94.017 E8.53224
G1 X135.005 Y93.864 E8.54651
G1 X135.696 Y93.639 E8.57068
G1 X135.971 Y93.564 E8.58016
G1 X137.017 Y93.358 E8.61562
G1 X137.441 Y93.306 E8.62983
G1 X137.869 Y93.266 E8.64413
G1 X138.15 Y93.248 E8.65349
G1 X139.195 Y93.255 E8.68825
G1 X139.337 Y93.266 E8.69299
G1 X139.649 Y93.297 E8.70341
G1 X140.073 Y93.348 E8.71762
G1 X140.891 Y93.493 E8.74525
G1 X141.166 Y93.558 E8.75465
G1 X142.066 Y93.833 E8.78595
G1 X142.468 Y93.984 E8.80023
G1 X142.965 Y94.191 E8.81814
G1 X143.223 Y94.31 E8.82759
G1 X144.181 Y94.841 E8.86402
G1 X144.455 Y95.024 E8.87498
G1 X144.806 Y95.267 E8.88918
G1 X145.502 Y95.813 E8.9186
G1 X145.713 Y96 E8.92798
G1 X146.33 Y96.615 E8.95695
G1 X146.616 Y96.936 E8.97125
G1 X147.027 Y97.44 E8.99288
G1 X147.196 Y97.667 E9.00229
G1 X147.802 Y98.627 E9.04005
G1 X148.069 Y99.132 E9.05905
G1 X148.499 Y100.11 E9.09459
G1 X148.594 Y100.377 E9.10401
G1 X148.805 Y101.079 E9.12839
G1 X148.908 Y101.495 E9.14265
G1 X149.05 Y102.224 E9.16735
G1 X149.09 Y102.503 E9.17672
G1 X149.165 Y103.536 E9.21117
G1 X149.166 Y103.966 E9.22547
G1 X149.154 Y104.404 E9.24005
G1 X149.138 Y104.685 E9.24941
G1 X148.994 Y105.775 E9.28598
G1 X148.965 Y105.914 E9.2907
G1 X148.906 Y106.173 E9.29953
G1 X148.803 Y106.591 E9.31385
G1 X148.555 Y107.396 E9.34187
G1 X148.457 Y107.66 E9.35123
G1 X148.075 Y108.518 E9.38247
G1 X147.876 Y108.898 E9.39674
G1 X147.612 Y109.361 E9.41447
G1 X147.464 Y109.6 E9.42382
G1 X146.828 Y110.477 E9.45985
G1 X146.631 Y110.708 E9.46995
G1 X146.347 Y111.03 E9.48423
G1 X145.637 Y111.733 E9.51746
G1 X145.423 Y111.918 E9.52687
G1 X144.791 Y112.407 E9.55344
G1 X144.438 Y112.651 E9.56772
G1 X143.882 Y113 E9.58955
G1 X143.637 Y113.139 E9.59892
G1 X142.637 Y113.611 E9.6357
G1 X142.103 Y113.816 E9.65472
G1 X141.028 Y114.138 E9.69205
G1 X140.753 Y114.198 E9.70141
G1 X140.088 Y114.312 E9.72385
G1 X139.661 Y114.365 E9.73816
G1 X138.881 Y114.42 E9.76417
G1 X138.6 Y114.425 E9.77352
G1 X138.527 Y114.421 E9.77595
G1 X138.253 Y115.276 E9.80581
G1 X138.209 Y115.384 E9.80969
G1 X137.882 Y116.08 E9.83526
G1 X137.445 Y116.797 E9.86319
G1 X133.753 Y122.143 E10.07928
G1 X133.284 Y122.752 E10.10485
G1 X132.734 Y123.329 E10.13136
G1 X132.65 Y123.408 E10.1352
G1 X131.788 Y124.104 E10.17205
G1 X131.558 Y124.263 E10.18135
G1 X131.09 Y124.552 E10.19964
G1 X131.081 Y124.62 E10.20192
G1 X130.992 Y125.049 E10.21649
G1 X130.927 Y125.32 E10.22576
G1 X130.584 Y126.386 E10.26301
G1 X130.54 Y126.494 E10.26689
G1 X130.213 Y127.19 E10.29246
G1 X129.777 Y127.906 E10.32035
G1 X126.086 Y133.252 E10.53642
G1 X125.616 Y133.862 E10.56203
G1 X125.066 Y134.439 E10.58854
G1 X124.982 Y134.518 E10.59238
G1 X124.249 Y135.109 E10.6237
G1 X124.288 Y135.198 E10.62693
G1 X124.383 Y135.466 E10.63638
G1 X124.587 Y136.143 E10.6599
G1 X124.691 Y136.559 E10.67416
G1 X124.84 Y137.326 E10.70015
G1 X124.879 Y137.604 E10.70949
G1 X124.951 Y138.615 E10.7432
G1 X124.952 Y139.045 E10.7575
G1 X124.94 Y139.481 E10.77201
G1 X124.924 Y139.763 E10.7814
G1 X124.78 Y140.855 E10.81804
G1 X124.751 Y140.994 E10.82276
G1 X124.692 Y141.253 E10.83159
G1 X124.589 Y141.671 E10.84591
G1 X124.338 Y142.485 E10.87424
G1 X124.24 Y142.748 E10.88358
G1 X123.865 Y143.59 E10.91424
G1 X123.666 Y143.971 E10.92853
G1 X123.398 Y144.441 E10.94653
G1 X123.25 Y144.68 E10.95588
G1 X122.614 Y145.557 E10.99191
G1 X122.41 Y145.795 E11.00234
G1 X122.127 Y146.115 E11.01654
G1 X121.438 Y146.798 E11.04881
G1 X121.224 Y146.984 E11.05824
G1 X120.578 Y147.486 E11.08545
G1 X120.225 Y147.73 E11.09973
G1 X119.688 Y148.068 E11.12083
G1 X119.443 Y148.208 E11.13021
G1 X118.42 Y148.693 E11.16787
G1 X117.885 Y148.898 E11.18693
G1 X116.814 Y149.218 E11.2241
G1 X116.539 Y149.278 E11.23347
G1 X115.874 Y149.392 E11.25591
G1 X115.447 Y149.445 E11.27022
G1 X114.64 Y149.5 E11.29712
G1 X114.359 Y149.504 E11.30647
G1 X113.376 Y149.453 E11.33921
G1 X112.949 Y149.402 E11.35351
G1 X112.492 Y149.333 E11.36888
G1 X112.214 Y149.282 E11.37828
G1 X111.146 Y149.002 E11.415
G1 X110.813 Y148.884 E11.42675
G1 X110.411 Y148.733 E11.44104
G1 X109.569 Y148.356 E11.47172
G1 X109.318 Y148.224 E11.48115
G1 X108.558 Y147.764 E11.5107
G1 X108.206 Y147.521 E11.52493
G1 X107.743 Y147.173 E11.54419
G1 X107.524 Y146.995 E11.55358
G1 X106.778 Y146.298 E11.58753
G1 X106.562 Y146.064 E11.59813
G1 X106.276 Y145.742 E11.61245
G1 X105.664 Y144.951 E11.64571
G1 X105.507 Y144.717 E11.65509
