;FLAVOR:Marlin
;TIME:5106
;Filament used: 2.47531m
;Layer height: 0.2
;MINX:75.601
;MINY:64.184
;MINZ:0.2
;MAXX:154.857
;MAXY:166.236
;MAXZ:16.4
;Generated with Cura_SteamEngine 4.13.1
M140 S60
M105
M190 S60
M104 S220
M105
M109 S220
M82 ;absolute extrusion mode
; Ender 3 Custom Start G-code
G92 E0 ; Reset Extruder
G28 ; Home all axes
G1 Z2.0 F3000 ; Move Z Axis up little to prevent scratching of Heat Bed
G1 X0.1 Y20 Z0.3 F5000.0 ; Move to start position
G1 X0.1 Y200.0 Z0.3 F1500.0 E15 ; Draw the first line
G1 X0.4 Y200.0 Z0.3 F5000.0 ; Move to side a little
G1 X0.4 Y20 Z0.3 F1500.0 E30 ; Draw the second line
G92 E0 ; Reset Extruder
G1 Z2.0 F3000 ; Move Z Axis up little to prevent scratching of Heat Bed
G1 X5 Y20 Z0.3 F5000.0 ; Move over to prevent blob squish
G92 E0
G92 E0
G1 F1500 E-6.5
;LAYER_COUNT:83
;LAYER:0
M107
G0 F6000 X112.183 Y69.295 Z0.2
;TYPE:SKIRT
G1 F1500 E0
G1 F1200 X112.841 Y68.375 E0.03762
G1 X113.202 Y67.94 E0.05642
G1 X113.736 Y67.358 E0.08269
G1 X114.039 Y67.076 E0.09646
G1 X114.254 Y66.886 E0.106
G1 X114.798 Y66.447 E0.12925
G1 X115.142 Y66.194 E0.14346
G1 X115.823 Y65.746 E0.17057
G1 X116.069 Y65.602 E0.18005
G1 X117.005 Y65.136 E0.21482
G1 X117.398 Y64.972 E0.22899
G1 X117.894 Y64.784 E0.24663
G1 X118.162 Y64.693 E0.25604
G1 X119.308 Y64.399 E0.29539
G1 X119.624 Y64.345 E0.30606
G1 X120.046 Y64.28 E0.32026
G1 X121.014 Y64.192 E0.35259
G1 X121.299 Y64.184 E0.36207
G1 X122.231 Y64.214 E0.39308
G1 X122.656 Y64.253 E0.40728
G1 X123.3 Y64.339 E0.42889
G1 X123.583 Y64.389 E0.43845
G1 X124.609 Y64.643 E0.4736
G1 X124.903 Y64.739 E0.48389
G1 X125.306 Y64.878 E0.49807
G1 X126.317 Y65.309 E0.53462
G1 X126.571 Y65.439 E0.54411
G1 X127.241 Y65.825 E0.56983
G1 X127.598 Y66.055 E0.58395
G1 X128.24 Y66.516 E0.61024
G1 X128.463 Y66.694 E0.61973
G1 X129.274 Y67.441 E0.65641
G1 X129.665 Y67.856 E0.67537
G1 X130.401 Y68.765 E0.71427
G1 X130.563 Y68.999 E0.72374
G1 X130.934 Y69.589 E0.74692
G1 X131.144 Y69.959 E0.76107
G1 X131.55 Y70.786 E0.79171
G1 X131.661 Y71.05 E0.80124
G1 X131.976 Y71.95 E0.83295
G1 X132.092 Y72.36 E0.84712
G1 X132.233 Y72.943 E0.86707
G1 X132.289 Y73.221 E0.8765
G1 X132.431 Y74.325 E0.91353
G1 X132.447 Y74.647 E0.92425
G1 X132.461 Y75.072 E0.93839
G1 X132.428 Y76.092 E0.97233
G1 X132.4 Y76.377 E0.98186
G1 X132.265 Y77.242 E1.01098
G1 X132.176 Y77.659 E1.02516
G1 X131.998 Y78.342 E1.04863
G1 X131.913 Y78.616 E1.05818
G1 X131.63 Y79.347 E1.08425
G1 X131.748 Y79.444 E1.08933
G1 X132.231 Y79.922 E1.11193
G1 X132.317 Y80.015 E1.11614
G1 X132.823 Y80.621 E1.1424
G1 X133.226 Y81.213 E1.16622
G1 X136.044 Y85.774 E1.34454
G1 X136.551 Y86.591 E1.37652
G1 X136.934 Y87.285 E1.40288
G1 X137.053 Y87.529 E1.41191
G1 X137.362 Y88.255 E1.43816
G1 X137.597 Y89.009 E1.46442
G1 X137.689 Y89.413 E1.47821
G1 X137.744 Y89.687 E1.4875
G1 X137.81 Y90.13 E1.5024
G1 X138.103 Y90.336 E1.51431
G1 X138.324 Y90.504 E1.52354
G1 X138.928 Y91.014 E1.54984
G1 X139.254 Y91.336 E1.56508
G1 X139.333 Y91.419 E1.56889
G1 X139.848 Y92.018 E1.59516
G1 X140.309 Y92.682 E1.62205
G1 X140.875 Y93.595 E1.65778
G1 X143.735 Y98.227 E1.83884
G1 X144.115 Y98.919 E1.86509
G1 X144.354 Y99.461 E1.8848
G1 X144.431 Y99.656 E1.89177
G1 X144.683 Y100.404 E1.91802
G1 X144.702 Y100.487 E1.92085
G1 X145.034 Y100.517 E1.93194
G1 X145.696 Y100.605 E1.95415
G1 X145.979 Y100.655 E1.96371
G1 X147.122 Y100.947 E2.00295
G1 X147.66 Y101.129 E2.02184
G1 X148.725 Y101.58 E2.06031
G1 X148.978 Y101.71 E2.06977
G1 X149.642 Y102.094 E2.09528
G1 X150 Y102.325 E2.10945
G1 X150.62 Y102.77 E2.13483
G1 X150.843 Y102.947 E2.1443
G1 X151.678 Y103.714 E2.18201
G1 X152.069 Y104.13 E2.201
G1 X152.798 Y105.032 E2.23958
G1 X152.96 Y105.266 E2.24904
G1 X153.331 Y105.856 E2.27222
G1 X153.541 Y106.226 E2.28637
G1 X153.947 Y107.053 E2.31701
G1 X154.058 Y107.317 E2.32654
G1 X154.372 Y108.212 E2.35809
G1 X154.488 Y108.621 E2.37223
G1 X154.631 Y109.214 E2.39251
G1 X154.687 Y109.493 E2.40198
G1 X154.828 Y110.592 E2.43883
G1 X154.844 Y110.933 E2.45019
G1 X154.857 Y111.358 E2.46433
G1 X154.824 Y112.359 E2.49764
G1 X154.796 Y112.644 E2.50716
G1 X154.669 Y113.474 E2.53509
G1 X154.582 Y113.891 E2.54926
G1 X154.388 Y114.632 E2.57474
G1 X154.303 Y114.903 E2.58418
G1 X153.889 Y115.953 E2.62172
G1 X153.641 Y116.468 E2.64073
G1 X153.065 Y117.468 E2.67912
G1 X152.906 Y117.702 E2.68853
G1 X152.44 Y118.319 E2.71424
G1 X152.166 Y118.647 E2.72846
G1 X151.668 Y119.189 E2.75294
G1 X151.466 Y119.389 E2.76239
G1 X150.584 Y120.141 E2.80094
G1 X150.122 Y120.479 E2.81998
G1 X149.125 Y121.099 E2.85903
G1 X148.874 Y121.23 E2.86845
G1 X148.26 Y121.517 E2.89099
G1 X147.868 Y121.68 E2.90511
G1 X147.009 Y121.98 E2.93538
G1 X146.735 Y122.058 E2.94485
G1 X145.766 Y122.268 E2.97783
G1 X145.343 Y122.332 E2.99206
G1 X144.778 Y122.397 E3.01097
G1 X144.494 Y122.419 E3.02045
G1 X143.344 Y122.423 E3.0587
G1 X143.054 Y122.401 E3.06837
G1 X142.63 Y122.363 E3.08253
G1 X141.608 Y122.202 E3.11694
G1 X141.329 Y122.139 E3.12645
G1 X140.52 Y121.91 E3.15442
G1 X140.117 Y121.772 E3.16859
G1 X139.692 Y121.603 E3.1838
G1 X139.501 Y122.206 E3.20484
G1 X139.396 Y122.472 E3.21435
G1 X139.047 Y123.235 E3.24225
G1 X138.849 Y123.612 E3.25642
G1 X138.487 Y124.229 E3.28021
G1 X138.332 Y124.468 E3.28968
G1 X137.649 Y125.371 E3.32734
G1 X137.274 Y125.798 E3.34624
G1 X136.723 Y126.364 E3.37252
G1 X136.401 Y126.648 E3.3868
G1 X136.181 Y126.831 E3.39631
G1 X135.649 Y127.236 E3.41855
G1 X135.297 Y127.481 E3.43282
G1 X134.527 Y127.953 E3.46285
G1 X134.279 Y128.086 E3.47221
G1 X133.38 Y128.497 E3.50509
G1 X132.98 Y128.65 E3.51934
G1 X132.47 Y128.825 E3.53727
G1 X132.198 Y128.908 E3.54673
G1 X131.115 Y129.156 E3.58368
G1 X130.728 Y129.212 E3.59669
G1 X130.352 Y129.258 E3.60929
G1 X130.309 Y129.471 E3.61651
G1 X130.168 Y129.953 E3.63322
G1 X130.131 Y130.066 E3.63717
G1 X129.847 Y130.803 E3.66344
G1 X129.473 Y131.538 E3.69087
G1 X126.224 Y137.167 E3.90704
G1 X125.796 Y137.83 E3.93329
G1 X125.467 Y138.254 E3.95114
G1 X125.334 Y138.414 E3.95806
G1 X124.799 Y138.995 E3.98433
G1 X124.208 Y139.519 E4.0106
G1 X123.793 Y139.818 E4.02761
G1 X123.758 Y140.114 E4.03752
G1 X123.717 Y140.385 E4.04664
G1 X123.56 Y141.159 E4.07291
G1 X123.418 Y141.645 E4.08975
G1 X123.381 Y141.758 E4.0937
G1 X123.097 Y142.495 E4.11997
G1 X122.723 Y143.231 E4.14743
G1 X119.474 Y148.859 E4.36357
G1 X119.045 Y149.522 E4.38984
G1 X118.726 Y149.934 E4.40717
G1 X118.591 Y150.097 E4.4142
G1 X118.057 Y150.679 E4.44048
G1 X117.944 Y150.78 E4.44552
G1 X118.033 Y150.98 E4.4528
G1 X118.409 Y152.01 E4.48927
G1 X118.448 Y152.146 E4.49397
G1 X118.517 Y152.404 E4.50286
G1 X118.62 Y152.816 E4.51698
G1 X118.798 Y153.781 E4.54962
G1 X118.832 Y154.065 E4.55913
G1 X118.887 Y154.974 E4.58942
G1 X118.888 Y155.401 E4.60362
G1 X118.865 Y156.015 E4.62406
G1 X118.843 Y156.302 E4.63363
G1 X118.743 Y157.085 E4.65989
G1 X118.647 Y157.542 E4.67542
G1 X118.514 Y158.091 E4.69421
G1 X118.192 Y159.11 E4.72975
G1 X118.087 Y159.377 E4.73929
G1 X117.741 Y160.134 E4.76698
G1 X117.544 Y160.511 E4.78112
G1 X117.183 Y161.131 E4.80498
G1 X117.028 Y161.371 E4.81449
G1 X116.317 Y162.308 E4.85361
G1 X115.94 Y162.734 E4.87253
G1 X115.114 Y163.539 E4.91089
G1 X114.896 Y163.722 E4.92036
G1 X114.337 Y164.15 E4.94377
G1 X113.985 Y164.395 E4.95804
G1 X113.215 Y164.867 E4.98808
G1 X112.967 Y165 E4.99744
G1 X112.068 Y165.411 E5.03031
G1 X111.668 Y165.564 E5.04456
G1 X111.158 Y165.739 E5.06249
G1 X110.886 Y165.822 E5.07195
G1 X109.803 Y166.07 E5.1089
G1 X109.416 Y166.126 E5.12191
G1 X108.992 Y166.178 E5.13612
G1 X108.016 Y166.236 E5.16864
G1 X107.732 Y166.235 E5.17808
G1 X106.843 Y166.181 E5.20771
G1 X106.42 Y166.131 E5.22187
G1 X105.748 Y166.022 E5.24452
G1 X105.469 Y165.964 E5.25399
G1 X104.705 Y165.764 E5.28026
G1 X104.326 Y165.633 E5.2936
G1 X103.791 Y165.433 E5.31259
G1 X102.795 Y164.979 E5.349
G1 X102.545 Y164.843 E5.35847
G1 X101.836 Y164.407 E5.38615
G1 X101.486 Y164.165 E5.4003
G1 X100.875 Y163.696 E5.42592
G1 X100.657 Y163.511 E5.43543
G1 X99.876 Y162.748 E5.47175
G1 X99.498 Y162.323 E5.49066
G1 X99.003 Y161.707 E5.51695
G1 X98.769 Y161.364 E5.53076
G1 X98.615 Y161.125 E5.54021
G1 X98.285 Y160.562 E5.56192
G1 X98.084 Y160.184 E5.57616
G1 X97.692 Y159.324 E5.60759
G1 X97.59 Y159.059 E5.61704
G1 X97.301 Y158.144 E5.64895
G1 X97.198 Y157.731 E5.66311
G1 X97.077 Y157.153 E5.68275
G1 X97.029 Y156.871 E5.69226
G1 X96.921 Y155.782 E5.72866
G1 X96.914 Y155.438 E5.74011
G1 X96.913 Y155.013 E5.75424
G1 X96.974 Y154.021 E5.7873
G1 X97.01 Y153.735 E5.79689
G1 X97.178 Y152.835 E5.82734
G1 X97.28 Y152.423 E5.84145
G1 X97.471 Y151.773 E5.86399
G1 X97.563 Y151.504 E5.87344
G1 X97.871 Y150.765 E5.90007
G1 X97.662 Y150.578 E5.9094
G1 X97.379 Y150.282 E5.92302
G1 X97.302 Y150.197 E5.92683
G1 X96.802 Y149.585 E5.95312
G1 X96.329 Y148.862 E5.98186
G1 X93.601 Y144.138 E6.16329
G1 X93.083 Y143.241 E6.19774
G1 X92.723 Y142.539 E6.22398
G1 X92.496 Y141.979 E6.24408
G1 X92.425 Y141.782 E6.25105
G1 X92.195 Y141.026 E6.27733
G1 X92.043 Y140.251 E6.3036
G1 X92.001 Y139.803 E6.31856
G1 X91.736 Y139.605 E6.32957
G1 X91.521 Y139.432 E6.33874
G1 X90.932 Y138.906 E6.36501
G1 X90.633 Y138.595 E6.37936
G1 X90.555 Y138.509 E6.38322
G1 X90.055 Y137.898 E6.40948
G1 X89.578 Y137.169 E6.43845
G1 X86.329 Y131.542 E6.65457
G1 X85.969 Y130.839 E6.68084
G1 X85.746 Y130.287 E6.70064
G1 X85.675 Y130.09 E6.7076
G1 X85.445 Y129.334 E6.73388
G1 X85.43 Y129.255 E6.73656
G1 X85.108 Y129.217 E6.74734
G1 X84.436 Y129.108 E6.76999
G1 X84.157 Y129.05 E6.77946
G1 X83.393 Y128.85 E6.80573
G1 X83.014 Y128.719 E6.81907
G1 X82.479 Y128.519 E6.83807
G1 X81.483 Y128.065 E6.87447
G1 X81.233 Y127.929 E6.88394
G1 X80.524 Y127.493 E6.91162
G1 X80.174 Y127.251 E6.92577
G1 X79.577 Y126.794 E6.95078
G1 X79.358 Y126.609 E6.96031
G1 X78.563 Y125.834 E6.99724
G1 X78.185 Y125.409 E7.01616
G1 X77.69 Y124.793 E7.04244
G1 X77.456 Y124.45 E7.05625
G1 X77.302 Y124.211 E7.06571
G1 X76.965 Y123.634 E7.08793
G1 X76.765 Y123.256 E7.10216
G1 X76.38 Y122.41 E7.13307
G1 X76.278 Y122.145 E7.14252
G1 X75.989 Y121.23 E7.17443
G1 X75.886 Y120.817 E7.18859
G1 X75.771 Y120.275 E7.20702
G1 X75.722 Y119.995 E7.21647
G1 X75.625 Y119.211 E7.24275
G1 X75.607 Y118.812 E7.25603
G1 X75.602 Y118.524 E7.26561
G1 X75.601 Y118.099 E7.27975
G1 X75.662 Y117.107 E7.3128
G1 X75.698 Y116.821 E7.32239
G1 X75.866 Y115.921 E7.35284
G1 X75.968 Y115.509 E7.36696
G1 X76.15 Y114.883 E7.38864
G1 X76.241 Y114.614 E7.39809
G1 X76.532 Y113.88 E7.42435
G1 X76.706 Y113.522 E7.43759
G1 X76.968 Y113.017 E7.45651
G1 X77.552 Y112.065 E7.49366
G1 X77.719 Y111.832 E7.50319
G1 X78.232 Y111.191 E7.5305
G1 X78.515 Y110.873 E7.54466
G1 X79.034 Y110.342 E7.56935
G1 X79.244 Y110.147 E7.57888
G1 X80.14 Y109.431 E7.61703
G1 X80.608 Y109.11 E7.63591
G1 X81.608 Y108.528 E7.67439
G1 X81.865 Y108.403 E7.68389
G1 X82.488 Y108.133 E7.70648
G1 X82.885 Y107.981 E7.72062
G1 X83.801 Y107.693 E7.75255
G1 X84.08 Y107.624 E7.76211
G1 X84.981 Y107.457 E7.79259
G1 X85.403 Y107.404 E7.80674
G1 X86.018 Y107.351 E7.82727
G1 X86.302 Y107.338 E7.83672
G1 X87.419 Y107.367 E7.87389
G1 X87.74 Y107.401 E7.88462
G1 X88.161 Y107.452 E7.89873
G1 X89.16 Y107.639 E7.93253
G1 X89.437 Y107.71 E7.94204
G1 X90.245 Y107.965 E7.97022
G1 X90.644 Y108.115 E7.9844
G1 X91.181 Y108.346 E8.00384
G1 X91.285 Y108.099 E8.01276
G1 X91.471 Y107.717 E8.02689
G1 X91.812 Y107.091 E8.0506
G1 X91.961 Y106.845 E8.06017
G1 X92.632 Y105.903 E8.09863
G1 X92.994 Y105.467 E8.11748
G1 X93.803 Y104.629 E8.15622
G1 X94.016 Y104.439 E8.16571
G1 X94.59 Y103.974 E8.19028
G1 X94.933 Y103.722 E8.20444
G1 X95.646 Y103.256 E8.23277
G1 X95.895 Y103.112 E8.24234
G1 X96.79 Y102.668 E8.27557
G1 X97.182 Y102.504 E8.2897
G1 X97.701 Y102.309 E8.30814
G1 X97.971 Y102.218 E8.31762
G1 X99.048 Y101.938 E8.35463
G1 X99.416 Y101.874 E8.36705
G1 X99.813 Y101.813 E8.38041
G1 X99.927 Y101.246 E8.39965
G1 X99.957 Y101.137 E8.40341
G1 X100.204 Y100.387 E8.42967
G1 X100.609 Y99.509 E8.46183
G1 X103.692 Y93.783 E8.67813
G1 X104.101 Y93.108 E8.70438
G1 X104.469 Y92.608 E8.72503
G1 X104.597 Y92.448 E8.73184
G1 X105.121 Y91.858 E8.75809
G1 X105.702 Y91.323 E8.78436
G1 X106.045 Y91.066 E8.79861
G1 X106.078 Y90.697 E8.81093
G1 X106.114 Y90.421 E8.82019
G1 X106.328 Y89.36 E8.85619
G1 X106.358 Y89.251 E8.85995
G1 X106.605 Y88.501 E8.88621
G1 X107.01 Y87.623 E8.91837
G1 X110.093 Y81.897 E9.13467
G1 X110.502 Y81.222 E9.16092
G1 X110.837 Y80.764 E9.1798
G1 X110.964 Y80.603 E9.18662
G1 X111.484 Y80.009 E9.21287
G1 X111.567 Y79.932 E9.21664
G1 X111.385 Y79.562 E9.23035
G1 X111.231 Y79.176 E9.24418
G1 X111.133 Y78.91 E9.2536
G1 X110.943 Y78.324 E9.27409
G1 X110.828 Y77.915 E9.28822
G1 X110.629 Y76.998 E9.31943
G1 X110.585 Y76.714 E9.32899
G1 X110.497 Y75.758 E9.36092
G1 X110.484 Y75.333 E9.37507
G1 X110.489 Y74.711 E9.39575
G1 X110.503 Y74.427 E9.40521
G1 X110.633 Y73.344 E9.44149
G1 X110.696 Y73.028 E9.45221
G1 X110.786 Y72.61 E9.46643
G1 X111.071 Y71.613 E9.50092
G1 X111.167 Y71.346 E9.51036
G1 X111.491 Y70.578 E9.53808
G1 X111.677 Y70.195 E9.55224
G1 X112.033 Y69.541 E9.57701
G1 X112.183 Y69.295 E9.58659
G0 F6000 X112.525 Y69.504
G1 F1200 X113.149 Y68.63 E9.62231
G1 X113.51 Y68.195 E9.64111
G1 X114.304 Y67.376 E9.67905
G1 X114.519 Y67.186 E9.68859
G1 X115.035 Y66.77 E9.71064
G1 X115.379 Y66.517 E9.72484
G1 X116.025 Y66.092 E9.75056
G1 X116.271 Y65.948 E9.76004
G1 X117.159 Y65.505 E9.79305
G1 X117.552 Y65.341 E9.80721
G1 X118.023 Y65.163 E9.82396
G1 X118.291 Y65.072 E9.83337
G1 X119.378 Y64.793 E9.8707
G1 X119.684 Y64.74 E9.88102
G1 X120.106 Y64.675 E9.89523
G1 X121.025 Y64.592 E9.92592
G1 X121.31 Y64.584 E9.9354
G1 X122.194 Y64.612 E9.96482
G1 X122.619 Y64.651 E9.97901
G1 X123.23 Y64.733 E9.99952
G1 X123.513 Y64.783 E10.00907
G1 X124.487 Y65.024 E10.04245
G1 X124.773 Y65.117 E10.05245
G1 X125.176 Y65.256 E10.06663
G1 X126.134 Y65.665 E10.10127
G1 X126.388 Y65.795 E10.11076
G1 X127.025 Y66.161 E10.1352
G1 X127.382 Y66.391 E10.14932
G1 X127.99 Y66.829 E10.17425
G1 X128.213 Y67.007 E10.18374
G1 X128.983 Y67.715 E10.21853
G1 X129.374 Y68.13 E10.23749
G1 X130.072 Y68.993 E10.27441
G1 X130.234 Y69.227 E10.28387
G1 X130.586 Y69.786 E10.30585
G1 X130.796 Y70.156 E10.32
G1 X131.182 Y70.941 E10.34909
G1 X131.293 Y71.205 E10.35862
G1 X131.591 Y72.058 E10.38867
G1 X131.707 Y72.468 E10.40284
G1 X131.841 Y73.022 E10.4218
G1 X131.897 Y73.3 E10.43123
G1 X132.031 Y74.348 E10.46637
G1 X132.047 Y74.66 E10.47676
G1 X132.061 Y75.085 E10.4909
G1 X132.03 Y76.053 E10.52312
G1 X132.002 Y76.338 E10.53264
G1 X131.874 Y77.159 E10.56028
G1 X131.785 Y77.576 E10.57446
G1 X131.616 Y78.224 E10.59673
G1 X131.531 Y78.498 E10.60627
G1 X131.173 Y79.426 E10.63936
G1 X131.152 Y79.472 E10.64104
G1 X131.494 Y79.753 E10.65576
G1 X131.937 Y80.194 E10.67655
G1 X132.023 Y80.287 E10.68076
G1 X132.515 Y80.878 E10.70634
G1 X132.886 Y81.423 E10.72827
G1 X135.704 Y85.985 E10.90662
G1 X136.211 Y86.802 E10.9386
G1 X136.574 Y87.46 E10.96359
G1 X136.693 Y87.704 E10.97262
G1 X136.994 Y88.412 E10.99821
G1 X137.297 Y89.492 E11.03552
G1 X137.352 Y89.766 E11.04481
G1 X137.439 Y90.358 E11.06471
G1 X137.469 Y90.376 E11.06588
G1 X137.861 Y90.655 E11.08188
G1 X138.082 Y90.823 E11.09111
G1 X138.67 Y91.32 E11.11672
G1 X138.964 Y91.612 E11.1305
G1 X139.043 Y91.695 E11.13431
G1 X139.544 Y92.279 E11.15991
G1 X139.969 Y92.893 E11.18474
G1 X140.532 Y93.801 E11.22028
G1 X143.395 Y98.437 E11.4015
G1 X143.764 Y99.111 E11.42706
G1 X143.982 Y99.608 E11.44511
G1 X144.059 Y99.803 E11.45208
G1 X144.304 Y100.532 E11.47766
G1 X144.38 Y100.871 E11.48922
G1 X144.573 Y100.877 E11.49564
G1 X144.998 Y100.915 E11.50983
G1 X145.626 Y100.999 E11.53091
G1 X145.909 Y101.049 E11.54046
G1 X146.993 Y101.326 E11.57768
G1 X147.531 Y101.508 E11.59657
G1 X148.542 Y101.936 E11.63308
G1 X148.795 Y102.066 E11.64254
G1 X149.425 Y102.43 E11.66674
G1 X149.783 Y102.661 E11.68091
G1 X150.372 Y103.083 E11.70501
G1 X150.595 Y103.26 E11.71448
G1 X151.386 Y103.988 E11.75024
G1 X151.777 Y104.404 E11.76923
G1 X152.469 Y105.26 E11.80584
G1 X152.631 Y105.494 E11.8153
G1 X152.983 Y106.053 E11.83727
G1 X153.193 Y106.423 E11.85142
G1 X153.579 Y107.208 E11.88052
G1 X153.69 Y107.472 E11.89004
G1 X153.987 Y108.321 E11.91996
